Costumes/jeans-b.svg

<?xml version="1.0" encoding="UTF-8" standalone="no"?>
<svg
   version="1.1"
   width="45.135517"
   height="104.06938"
   viewBox="-1 -1 45.135517 104.06938"
   id="svg14"
   sodipodi:docname="jeans-b.svg"
   xmlns:inkscape="http://www.inkscape.org/namespaces/inkscape"
   xmlns:sodipodi="http://sodipodi.sourceforge.net/DTD/sodipodi-0.dtd"
   xmlns="http://www.w3.org/2000/svg"
   xmlns:svg="http://www.w3.org/2000/svg">
  <defs
     id="defs18" />
  <sodipodi:namedview
     id="namedview16"
     pagecolor="#ffffff"
     bordercolor="#000000"
     borderopacity="0.25"
     inkscape:showpageshadow="2"
     inkscape:pageopacity="0.0"
     inkscape:pagecheckerboard="0"
     inkscape:deskcolor="#d1d1d1" />
  <!-- Exported by Scratch - http://scratch.mit.edu/ -->
  <g
     id="ID0.766191819217056"
     transform="translate(-1.6218871,-1.2733116)">
    <path
       id="ID0.9025724199600518"
       fill="#002699"
       stroke="#000000"
       stroke-width="2"
       stroke-linecap="round"
       d="m 112.65,187.4 c 14.137,-1.663 28.332,-2.547 42.5,-3.5 3.542,-0.239 3.279,-0.962 3.5,0.25 0.729,5.296 -1.305,9.07 -1.15,15.85 0.62,27.119 2.157,54.292 3.15,81.4 0.38,10.371 0.82,20.869 0.75,31.3 -0.003,2.598 0.358,1.12 -0.75,1.25 -4.439,0.536 -8.993,1.483 -13.25,0.5 -1.324,-0.29 -0.425,1.68 -1,-3.75 -2.311,-21.712 -4.179,-43.594 -6.5,-65.25 -0.815,-7.609 -2.185,-15.089 -3.25,-22.75 -0.661,-5.473 -0.667,-11.004 -1.25,-16.5 -0.225,-2.317 1.029,-5.052 -0.25,-7 -0.659,-1.052 -2.938,-0.965 -3.75,-0.05 -0.854,0.967 0.8,1.421 0.75,3.8 -0.687,9.708 -1.895,19.391 -2.75,29 -1.499,16.722 -3.495,33.456 -4.75,50.2 -0.554,7.38 0.095,14.718 -0.25,22.05 -0.106,1.836 0.463,2.308 -0.75,2.5 -4.849,0.786 -10.185,1.541 -14.75,0 -1.584,-0.536 -0.452,-3.097 -0.5,-5 -0.037,-8.071 0.062,-16.2 0.25,-24.05 0.644,-26.86 1.729,-53.651 2.35,-80.65 0.155,-6.75 -0.625,-5.776 -0.15,-8.6 0.12,-0.717 -1.734,-0.584 1.8,-1 z"
       transform="matrix(-0.81450623,0,0,0.78000873,132.95,-142.05)" />
    <g
       id="ID0.17013505846261978">
      <path
         id="ID0.47323201317340136"
         fill="none"
         stroke="#000000"
         stroke-width="2"
         stroke-linecap="round"
         d="m 125.75,237.75 -11.5,-1.25"
         transform="matrix(-0.81450623,0,0,0.78000873,123.65,-172.15)" />
      <path
         id="ID0.7334474860690534"
         fill="none"
         stroke="#000000"
         stroke-width="2"
         stroke-linecap="round"
         d="M 119.25,237.5 119,224.5"
         transform="matrix(-0.81450623,0,0,0.78000873,123.65,-172.15)" />
      <path
         id="ID0.7548331739380956"
         fill="none"
         stroke="#000000"
         stroke-width="2"
         stroke-linecap="round"
         d="m 127.5,224 -5,4.5"
         transform="matrix(-0.81450623,0,0,0.78000873,123.65,-172.15)" />
      <path
         id="ID0.37362584890797734"
         fill="none"
         stroke="#000000"
         stroke-width="2"
         stroke-linecap="round"
         d="m 131,224.25 -8.25,8"
         transform="matrix(-0.81450623,0,0,0.78000873,123.65,-172.15)" />
      <path
         id="ID0.36754080513492227"
         fill="none"
         stroke="#000000"
         stroke-width="2"
         stroke-linecap="round"
         d="m 134.75,217 11,9"
         transform="matrix(-0.81450623,0,0,0.78000873,123.65,-166.3)" />
      <path
         id="ID0.06994768511503935"
         fill="none"
         stroke="#000000"
         stroke-width="2"
         stroke-linecap="round"
         d="m 139,217 7.25,6.25"
         transform="matrix(-0.81450623,0,0,0.78000873,123.65,-166.3)" />
      <path
         id="ID0.16788794565945864"
         fill="none"
         stroke="#000000"
         stroke-width="2"
         stroke-linecap="round"
         d="m 107,226.25 -7.5,6"
         transform="matrix(-0.81450623,0,0,0.78000873,123.65,-172.15)" />
      <path
         id="ID0.6218315488658845"
         fill="none"
         stroke="#000000"
         stroke-width="2"
         stroke-linecap="round"
         d="m 99.5,235.75 14,-11"
         transform="matrix(-0.81450623,0,0,0.78000873,123.65,-172.15)" />
      <path
         id="ID0.5768417906947434"
         fill="none"
         stroke="#000000"
         stroke-width="2"
         stroke-linecap="round"
         d="m 122.25,224 v 13.5"
         transform="matrix(-0.81450623,0,0,0.78000873,123.65,-172.15)" />
    </g>
  </g>
</svg>

<svg version="1.1" width="47" height="106" viewBox="-1 -1 47 106" xmlns="http://www.w3.org/2000/svg" xmlns:xlink="http://www.w3.org/1999/xlink">
  <!-- Exported by Scratch - http://scratch.mit.edu/ -->
  <g id="ID0.766191819217056">
    <path id="ID0.9025724199600518" fill="#002699" stroke="#000000" stroke-width="2" stroke-linecap="round" d="M 112.650 187.400 C 126.787 185.737 140.982 184.853 155.150 183.900 C 158.692 183.661 158.429 182.938 158.650 184.150 C 159.379 189.446 157.345 193.220 157.500 200 C 158.120 227.119 159.657 254.292 160.650 281.400 C 161.030 291.771 161.470 302.269 161.400 312.700 C 161.397 315.298 161.758 313.820 160.650 313.950 C 156.211 314.486 151.657 315.433 147.400 314.450 C 146.076 314.160 146.975 316.130 146.400 310.700 C 144.089 288.988 142.221 267.106 139.900 245.450 C 139.085 237.841 137.715 230.361 136.650 222.700 C 135.989 217.227 135.983 211.696 135.400 206.200 C 135.175 203.883 136.429 201.148 135.150 199.200 C 134.491 198.148 132.212 198.235 131.400 199.150 C 130.546 200.117 132.200 200.571 132.150 202.950 C 131.463 212.658 130.255 222.341 129.400 231.950 C 127.901 248.672 125.905 265.406 124.650 282.150 C 124.096 289.530 124.745 296.868 124.400 304.200 C 124.294 306.036 124.863 306.508 123.650 306.700 C 118.801 307.486 113.465 308.241 108.900 306.700 C 107.316 306.164 108.448 303.603 108.400 301.700 C 108.363 293.629 108.462 285.500 108.650 277.650 C 109.294 250.790 110.379 223.999 111 197 C 111.155 190.250 110.375 191.224 110.850 188.400 C 110.970 187.683 109.116 187.816 112.650 187.400 Z " transform="matrix(-0.8145062327384949, 0, 0, 0.7800087332725525, 132.95, -142.05)"/>
    <g id="ID0.17013505846261978">
      <path id="ID0.47323201317340136" fill="none" stroke="#000000" stroke-width="2" stroke-linecap="round" d="M 125.750 237.750 L 114.250 236.500 " transform="matrix(-0.8145062327384949, 0, 0, 0.7800087332725525, 123.65, -172.15)"/>
      <path id="ID0.7334474860690534" fill="none" stroke="#000000" stroke-width="2" stroke-linecap="round" d="M 119.250 237.500 L 119 224.500 " transform="matrix(-0.8145062327384949, 0, 0, 0.7800087332725525, 123.65, -172.15)"/>
      <path id="ID0.7548331739380956" fill="none" stroke="#000000" stroke-width="2" stroke-linecap="round" d="M 127.500 224 L 122.500 228.500 " transform="matrix(-0.8145062327384949, 0, 0, 0.7800087332725525, 123.65, -172.15)"/>
      <path id="ID0.37362584890797734" fill="none" stroke="#000000" stroke-width="2" stroke-linecap="round" d="M 131 224.250 L 122.750 232.250 " transform="matrix(-0.8145062327384949, 0, 0, 0.7800087332725525, 123.65, -172.15)"/>
      <path id="ID0.36754080513492227" fill="none" stroke="#000000" stroke-width="2" stroke-linecap="round" d="M 134.750 217 L 145.750 226 " transform="matrix(-0.8145062327384949, 0, 0, 0.7800087332725525, 123.65, -166.3)"/>
      <path id="ID0.06994768511503935" fill="none" stroke="#000000" stroke-width="2" stroke-linecap="round" d="M 139 217 L 146.250 223.250 " transform="matrix(-0.8145062327384949, 0, 0, 0.7800087332725525, 123.65, -166.3)"/>
      <path id="ID0.16788794565945864" fill="none" stroke="#000000" stroke-width="2" stroke-linecap="round" d="M 107 226.250 L 99.500 232.250 " transform="matrix(-0.8145062327384949, 0, 0, 0.7800087332725525, 123.65, -172.15)"/>
      <path id="ID0.6218315488658845" fill="none" stroke="#000000" stroke-width="2" stroke-linecap="round" d="M 99.500 235.750 L 113.500 224.750 " transform="matrix(-0.8145062327384949, 0, 0, 0.7800087332725525, 123.65, -172.15)"/>
      <path id="ID0.5768417906947434" fill="none" stroke="#000000" stroke-width="2" stroke-linecap="round" d="M 122.250 224 L 122.250 237.500 " transform="matrix(-0.8145062327384949, 0, 0, 0.7800087332725525, 123.65, -172.15)"/>
    </g>
  </g>
</svg>
